static/img/kroki/e8680489fabe9363e1a3b72ce8e150d5.svg

<?xml version="1.0" encoding="us-ascii" standalone="no"?><svg xmlns="http://www.w3.org/2000/svg" xmlns:xlink="http://www.w3.org/1999/xlink" contentStyleType="text/css" height="252px" preserveAspectRatio="none" style="width:437px;height:252px;" version="1.1" viewBox="0 0 437 252" width="437px" zoomAndPan="magnify"><defs/><g><!--class aws_cloudfront_field_level_encryption_config--><g id="elem_aws_cloudfront_field_level_encryption_config"><rect codeLine="22" fill="#3D176E" height="39.7891" id="aws_cloudfront_field_level_encryption_config" rx="2.5" ry="2.5" style="stroke:#000D19;stroke-width:0.5;" width="420" x="8.5" y="7"/><ellipse cx="23.5" cy="26.8945" fill="#ADD1B2" rx="11" ry="11" style="stroke:#181818;stroke-width:1.0;"/><path d="M26.4688,32.5352 Q25.8906,32.832 25.25,32.9727 Q24.6094,33.1289 23.9063,33.1289 Q21.4063,33.1289 20.0781,31.4883 Q18.7656,29.832 18.7656,26.707 Q18.7656,23.582 20.0781,21.9258 Q21.4063,20.2695 23.9063,20.2695 Q24.6094,20.2695 25.25,20.4258 Q25.9063,20.582 26.4688,20.8789 L26.4688,23.5977 Q25.8438,23.0195 25.25,22.7539 Q24.6563,22.4727 24.0313,22.4727 Q22.6875,22.4727 22,23.5508 Q21.3125,24.6133 21.3125,26.707 Q21.3125,28.8008 22,29.8789 Q22.6875,30.9414 24.0313,30.9414 Q24.6563,30.9414 25.25,30.6758 Q25.8438,30.3945 26.4688,29.8164 L26.4688,32.5352 Z " fill="#000000"/><text fill="#D9B8FF" font-family="Helvetica" font-size="17" lengthAdjust="spacing" textLength="378" x="42.5" y="32.7798">aws_cloudfront_field_level_encryption_config</text></g><!--class aws_cloudfront_field_level_encryption_profile--><g id="elem_aws_cloudfront_field_level_encryption_profile"><rect codeLine="24" fill="#3D176E" height="39.7891" id="aws_cloudfront_field_level_encryption_profile" rx="2.5" ry="2.5" style="stroke:#000D19;stroke-width:0.5;" width="423" x="7" y="106.79"/><ellipse cx="22" cy="126.6845" fill="#ADD1B2" rx="11" ry="11" style="stroke:#181818;stroke-width:1.0;"/><path d="M24.9688,132.3252 Q24.3906,132.622 23.75,132.7627 Q23.1094,132.9189 22.4063,132.9189 Q19.9063,132.9189 18.5781,131.2783 Q17.2656,129.622 17.2656,126.497 Q17.2656,123.372 18.5781,121.7158 Q19.9063,120.0595 22.4063,120.0595 Q23.1094,120.0595 23.75,120.2158 Q24.4063,120.372 24.9688,120.6689 L24.9688,123.3877 Q24.3438,122.8095 23.75,122.5439 Q23.1563,122.2627 22.5313,122.2627 Q21.1875,122.2627 20.5,123.3408 Q19.8125,124.4033 19.8125,126.497 Q19.8125,128.5908 20.5,129.6689 Q21.1875,130.7314 22.5313,130.7314 Q23.1563,130.7314 23.75,130.4658 Q24.3438,130.1845 24.9688,129.6064 L24.9688,132.3252 Z " fill="#000000"/><text fill="#D9B8FF" font-family="Helvetica" font-size="17" lengthAdjust="spacing" textLength="381" x="41" y="132.5698">aws_cloudfront_field_level_encryption_profile</text></g><!--class aws_cloudfront_public_key--><g id="elem_aws_cloudfront_public_key"><rect codeLine="26" fill="#3D176E" height="39.7891" id="aws_cloudfront_public_key" rx="2.5" ry="2.5" style="stroke:#000D19;stroke-width:0.5;" width="266" x="85.5" y="206.58"/><ellipse cx="100.5" cy="226.4745" fill="#ADD1B2" rx="11" ry="11" style="stroke:#181818;stroke-width:1.0;"/><path d="M103.4688,232.1152 Q102.8906,232.412 102.25,232.5527 Q101.6094,232.7089 100.9063,232.7089 Q98.4063,232.7089 97.0781,231.0683 Q95.7656,229.412 95.7656,226.287 Q95.7656,223.162 97.0781,221.5058 Q98.4063,219.8495 100.9063,219.8495 Q101.6094,219.8495 102.25,220.0058 Q102.9063,220.162 103.4688,220.4589 L103.4688,223.1777 Q102.8438,222.5995 102.25,222.3339 Q101.6563,222.0527 101.0313,222.0527 Q99.6875,222.0527 99,223.1308 Q98.3125,224.1933 98.3125,226.287 Q98.3125,228.3808 99,229.4589 Q99.6875,230.5214 101.0313,230.5214 Q101.6563,230.5214 102.25,230.2558 Q102.8438,229.9745 103.4688,229.3964 L103.4688,232.1152 Z " fill="#000000"/><text fill="#D9B8FF" font-family="Helvetica" font-size="17" lengthAdjust="spacing" textLength="224" x="119.5" y="232.3598">aws_cloudfront_public_key</text></g><!--link aws_cloudfront_field_level_encryption_config to aws_cloudfront_field_level_encryption_profile--><g id="link_aws_cloudfront_field_level_encryption_config_aws_cloudfront_field_level_encryption_profile"><path codeLine="28" d="M218.5,47.22 C218.5,62.49 218.5,83.92 218.5,100.53 " fill="none" id="aws_cloudfront_field_level_encryption_config-to-aws_cloudfront_field_level_encryption_profile" style="stroke:#1A83AF;stroke-width:2.0;"/><polygon fill="#1A83AF" points="218.5,105.41,222.5,96.41,218.5,100.41,214.5,96.41,218.5,105.41" style="stroke:#1A83AF;stroke-width:2.0;"/></g><!--link aws_cloudfront_field_level_encryption_profile to aws_cloudfront_public_key--><g id="link_aws_cloudfront_field_level_encryption_profile_aws_cloudfront_public_key"><path codeLine="29" d="M218.5,147.01 C218.5,162.28 218.5,183.71 218.5,200.32 " fill="none" id="aws_cloudfront_field_level_encryption_profile-to-aws_cloudfront_public_key" style="stroke:#1A83AF;stroke-width:2.0;"/><polygon fill="#1A83AF" points="218.5,205.2,222.5,196.2,218.5,200.2,214.5,196.2,218.5,205.2" style="stroke:#1A83AF;stroke-width:2.0;"/></g><!--SRC=[bP1DQyCm38Rl_HM6dWl9ofRsCiWAPRkKiUusHd1ikJLnh20xBTdOVry_zk4bQqkkqYFfURNM4XYKbMzO2MKEv0QkqBRYn4kM4k5sXWQ93PNYQfoqctEq_YAmu2MmUp0Ry5hmDl6yrgAmu1ox2bftN1GhmjhAutfFtBfT2wmFg9dXpgNUayvh3u6CdEOJfTfaU-bmBEFa1ZeOaWJwGg8eal6qZLmyTJRt3x7KRy3Yy6aBzD3Hx9muK6SjzqGWsGdwtJ_f-CYbr7R5heFQqz69BD2V-dBD9MxtjEB6XMUS1mBqJGMpJYgOJgHA_eKVJi5Y_pd6jouJ1ckfQ1SXKngCp0nim6HW1JMLrsWpWLRf5NiVVFGQgmYLDd1whgfpeqLMG7DWUicCNePnEXcdyzVHRJ-VGJ_xSuT-0tm2]--></g></svg>

<svg xmlns="http://www.w3.org/2000/svg" width="437" height="252" preserveAspectRatio="none" style="width:437px;height:252px"><rect width="420" height="39.789" x="8.5" y="7" fill="#3D176E" rx="2.5" ry="2.5" style="stroke:#000d19;stroke-width:.5"/><circle cx="23.5" cy="26.895" r="11" fill="#ADD1B2" style="stroke:#181818;stroke-width:1"/><path d="M26.469 32.535q-.578.297-1.219.438-.64.156-1.344.156-2.5 0-3.828-1.64-1.312-1.657-1.312-4.782t1.312-4.781q1.328-1.656 3.828-1.656.703 0 1.344.156.656.156 1.219.453v2.719q-.625-.578-1.219-.844-.594-.281-1.219-.281-1.343 0-2.031 1.078-.688 1.062-.688 3.156 0 2.094.688 3.172.688 1.062 2.031 1.062.625 0 1.219-.265.594-.281 1.219-.86v2.72Z"/><text x="42.5" y="32.78" fill="#D9B8FF" font-family="Helvetica" font-size="17" textLength="378">aws_cloudfront_field_level_encryption_config</text><rect width="423" height="39.789" x="7" y="106.79" fill="#3D176E" rx="2.5" ry="2.5" style="stroke:#000d19;stroke-width:.5"/><circle cx="22" cy="126.684" r="11" fill="#ADD1B2" style="stroke:#181818;stroke-width:1"/><path d="M24.969 132.325q-.578.297-1.219.438-.64.156-1.344.156-2.5 0-3.828-1.64-1.312-1.657-1.312-4.782t1.312-4.781q1.328-1.656 3.828-1.656.703 0 1.344.156.656.156 1.219.453v2.719q-.625-.579-1.219-.844-.594-.281-1.219-.281-1.343 0-2.031 1.078-.688 1.062-.688 3.156 0 2.094.688 3.172.688 1.062 2.031 1.062.625 0 1.219-.265.594-.281 1.219-.86v2.72Z"/><text x="41" y="132.57" fill="#D9B8FF" font-family="Helvetica" font-size="17" textLength="381">aws_cloudfront_field_level_encryption_profile</text><rect width="266" height="39.789" x="85.5" y="206.58" fill="#3D176E" rx="2.5" ry="2.5" style="stroke:#000d19;stroke-width:.5"/><circle cx="100.5" cy="226.475" r="11" fill="#ADD1B2" style="stroke:#181818;stroke-width:1"/><path d="M103.469 232.115q-.578.297-1.219.438-.64.156-1.344.156-2.5 0-3.828-1.64-1.312-1.657-1.312-4.782t1.312-4.781q1.328-1.656 3.828-1.656.703 0 1.344.156.656.156 1.219.453v2.719q-.625-.578-1.219-.844-.594-.281-1.219-.281-1.344 0-2.031 1.078-.688 1.062-.688 3.156 0 2.094.688 3.172.688 1.062 2.031 1.062.625 0 1.219-.265.594-.281 1.219-.86v2.72Z"/><text x="119.5" y="232.36" fill="#D9B8FF" font-family="Helvetica" font-size="17" textLength="224">aws_cloudfront_public_key</text><path fill="none" d="M218.5 47.22v53.31" style="stroke:#1a83af;stroke-width:2"/><path fill="#1A83AF" d="m218.5 105.41 4-9-4 4-4-4 4 9z" style="stroke:#1a83af;stroke-width:2"/><path fill="none" d="M218.5 147.01v53.31" style="stroke:#1a83af;stroke-width:2"/><path fill="#1A83AF" d="m218.5 205.2 4-9-4 4-4-4 4 9z" style="stroke:#1a83af;stroke-width:2"/></svg>
